dist/svgs/devui-icons/op/directory.svg

<svg xmlns="http://www.w3.org/2000/svg" viewBox="0 0 16 16"><path fill-rule="evenodd" d="M1 2h2v2H1V2zm0 5h2v2H1V7zm0 5h2v2H1v-2zM5 2h10v2H5V2zm0 5h10v2H5V7zm0 5h10v2H5v-2z"/></svg>

<?xml version="1.0" encoding="UTF-8"?>
<svg width="16px" height="16px" viewBox="0 0 16 16" version="1.1" xmlns="http://www.w3.org/2000/svg" xmlns:xlink="http://www.w3.org/1999/xlink">
    <title>运行列表</title>
    <desc>Created with Sketch.</desc>
    <g id="运行列表" stroke="none" stroke-width="1" fill="none" fill-rule="evenodd">
        <g>
            <path d="M1,2 L3,2 L3,4 L1,4 L1,2 Z M1,7 L3,7 L3,9 L1,9 L1,7 Z M1,12 L3,12 L3,14 L1,14 L1,12 Z M5,2 L15,2 L15,4 L5,4 L5,2 Z M5,7 L15,7 L15,9 L5,9 L5,7 Z M5,12 L15,12 L15,14 L5,14 L5,12 Z" id="形状" fill="#293040"></path>
        </g>
    </g>
</svg>
